img/twitter.svg

<svg width="21" height="21" viewBox="0 0 21 21" fill="none" xmlns="http://www.w3.org/2000/svg">
<g clip-path="url(#clip0_2_63)">
<path d="M10.5009 20.9998C16.2998 20.9998 21.0008 16.2988 21.0008 10.4999C21.0008 4.70097 16.2998 0 10.5009 0C4.70197 0 0.00100708 4.70097 0.00100708 10.4999C0.00100708 16.2988 4.70197 20.9998 10.5009 20.9998Z" fill="#55ACEE"/>
<path d="M16.9317 7.54607C16.4817 7.74559 15.9977 7.88054 15.4901 7.94081C16.0083 7.6303 16.4061 7.13897 16.5938 6.55257C16.1089 6.84025 15.5715 7.04895 15.0001 7.16143C14.5422 6.67385 13.8899 6.36914 13.1677 6.36914C11.7818 6.36914 10.6579 7.4931 10.6579 8.87891C10.6579 9.07563 10.6802 9.26711 10.7232 9.45091C8.63737 9.34628 6.78793 8.34716 5.54999 6.82827C5.33399 7.19887 5.21009 7.6303 5.21009 8.09018C5.21009 8.96071 5.65349 9.72923 6.32656 10.1792C5.91534 10.1663 5.52809 10.0534 5.18987 9.86493C5.18968 9.8756 5.18968 9.88627 5.18968 9.89675C5.18968 11.1128 6.05516 12.1271 7.20308 12.3575C6.9927 12.4151 6.77053 12.4456 6.54199 12.4456C6.3799 12.4456 6.22287 12.4301 6.06976 12.4009C6.38907 13.3978 7.31576 14.1234 8.41426 14.1438C7.55515 14.8171 6.47311 15.2182 5.29693 15.2182C5.09479 15.2182 4.89452 15.2064 4.69855 15.183C5.80866 15.8954 7.12821 16.3107 8.54547 16.3107C13.1618 16.3107 15.6864 12.4864 15.6864 9.16959C15.6864 9.06084 15.684 8.95247 15.6791 8.84504C16.1699 8.49128 16.5953 8.04937 16.9317 7.54607Z" fill="#F1F2F2"/>
</g>
<defs>
<clipPath id="clip0_2_63">
<rect width="21" height="21" fill="white"/>
</clipPath>
</defs>
</svg>

<svg xmlns="http://www.w3.org/2000/svg" width="21" height="21" fill="none" xmlns:v="https://vecta.io/nano"><g clip-path="url(#A)"><path d="M10.501 21c5.799 0 10.5-4.701 10.5-10.5S16.3 0 10.501 0 .001 4.701.001 10.5 4.702 21 10.501 21z" fill="#55acee"/><path d="M16.932 7.546a5.01 5.01 0 0 1-1.442.395c.518-.311.916-.802 1.104-1.388-.485.288-1.022.496-1.594.609-.458-.488-1.11-.792-1.832-.792a2.51 2.51 0 0 0-2.444 3.082C8.637 9.346 6.788 8.347 5.55 6.828a2.5 2.5 0 0 0-.34 1.262 2.51 2.51 0 0 0 1.116 2.089 2.49 2.49 0 0 1-1.137-.314v.032a2.51 2.51 0 0 0 2.013 2.461c-.21.058-.433.088-.661.088a2.51 2.51 0 0 1-.472-.045c.319.997 1.246 1.723 2.345 1.743-.859.673-1.941 1.074-3.117 1.074-.202 0-.402-.012-.598-.035a7.1 7.1 0 0 0 3.847 1.128c4.616 0 7.141-3.824 7.141-7.141a7.13 7.13 0 0 0-.007-.325 5.09 5.09 0 0 0 1.253-1.299z" fill="#f1f2f2"/></g><defs><clipPath id="A"><path fill="#fff" d="M0 0h21v21H0z"/></clipPath></defs></svg>
